!!!COM: Palestrina, Giovanni Perluigi da
!!!OPR: Ave Maria (1596)
!!!OTL: Sanctus
**kern	**kern	**kern	**kern	**kern	**kern
*Ibass	*Itenor	*Itenor	*Icalto	*Icalto	*Icant
!Bassus	!Tenor 2	!Tenor 1	!Altus 2	!Altus 1	!Cantus
*clefF4	*clefGv2	*clefGv2	*clefG2	*clefG2	*clefG2
*k[b-]	*k[b-]	*k[b-]	*k[b-]	*k[b-]	*k[b-]
*F:ion	*F:ion	*F:ion	*F:ion	*F:ion	*F:ion
*M4/2	*M4/2	*M4/2	*M4/2	*M4/2	*M4/2
=1	=1	=1	=1	=1	=1
0r	0r	0r	1.B-	1r	[0b-
.	.	.	.	[1B-	.
.	.	.	2c	.	.
=2	=2	=2	=2	=2	=2
0r	0r	0r	2d	2B-]	1b-]
.	.	.	2e	2c	.
.	.	.	2f	2d	[1a
.	.	.	2c	2e	.
=3	=3	=3	=3	=3	=3
0r	0r	0r	2d	2f	1a]
.	.	.	2e	2c	.
.	.	.	2f	2d	1a
.	.	.	2c	2e	.
=4	=4	=4	=4	=4	=4
0r	0r	0r	2.d	2.f	1a
.	.	.	4c	4e	.
.	.	.	4B-	2d	1b-
.	.	.	4A	.	.
.	.	.	4G	4B-	.
.	.	.	4A	4c	.
=5	=5	=5	=5	=5	=5
0r	0r	0r	4B-	4d	1f
.	.	.	4c	4e	.
.	.	.	2.d	2.f	.
.	.	.	.	.	1a
.	.	.	4e	4e	.
.	.	.	[2f	4d	.
.	.	.	.	4c	.
=6	=6	=6	=6	=6	=6
0r	0r	1r	2f]	2B-	1g
.	.	.	2e	2c	.
.	.	[1B-	1f	1d	2.b-
.	.	.	.	.	4cc
=7	=7	=7	=7	=7	=7
0r	0r	2B-]	1r	1.f	0dd
.	.	2c	.	.	.
.	.	2d	[1f	.	.
.	.	2e	.	2g	.
=8	=8	=8	=8	=8	=8
1.F	0r	1.f	2f]	2a	0cc
.	.	.	2g	2b-	.
.	.	.	2a	[1cc	.
2G	.	4e	2b-	.	.
.	.	4d	.	.	.
=9	=9	=9	=9	=9	=9
2A	0r	2c	0cc	2cc]	1r
2B-	.	2d	.	4b-	.
.	.	.	.	4a	.
2c	.	2e	.	2g	2r
2A	.	[2f	.	2a	2cc
=10	=10	=10	=10	=10	=10
2B-	0r	2f]	2b-	1g	2dd
2c	.	2e	2g	.	2ee
1F	.	1f	2.a	4f	2cc
.	.	.	.	4g	.
.	.	.	.	4a	[2ff
.	.	.	4b-	4f	.
=11	=11	=11	=11	=11	=11
1r	1r	1c	1cc	2.g	2ff]
.	.	.	.	.	2ee
.	.	.	.	4a	.
[1BB-	[1B-	1d	2f	1b-	2dd
.	.	.	[2d	.	[2ff
=12	=12	=12	=12	=12	=12
2BB-]	1B-]	1r	2d]	1.f	2ff]
2C	.	.	2e	.	2ee
2D	[1A	[1F	[1f	.	1dd
2E	.	.	.	2g	.
=13	=13	=13	=13	=13	=13
1.F	1A_	2F]	0f]	2a	1cc
.	.	2G	.	2b-	.
.	1A_	2A	.	1cc	[1a
2G	.	2B-	.	.	.
=14	=14	=14	=14	=14	=14
1A	1A]	2c	1e	1a	2a]
.	.	2d	.	.	2b-
1AA	[1A	2e	[1a	2r	2cc
.	.	2f	.	[2a	[2dd
=15	=15	=15	=15	=15	=15
1r	1A]	1e	1a]	4a]	2dd]
.	.	.	.	4g	.
.	.	.	.	2e	2cc#
2r	1B-	1d	1r	2g	2dd
[2BB-	.	.	.	[2f	[2d
=16	=16	=16	=16	=16	=16
2BB-]	[0F	0f	0r	2f]	2d]
2C	.	.	.	2e	2e
2D	.	.	.	2d	2f
2E	.	.	.	4c	2g
.	.	.	.	4B-	.
=17	=17	=17	=17	=17	=17
1F	1F]	1f	1.c	1A	2a
.	.	.	.	.	2b-
1r	[1A	1e	.	[1a	2.cc
.	.	.	2d	.	.
.	.	.	.	.	4b-
=18	=18	=18	=18	=18	=18
0r	1A]	1c	2e	1a]	4a
.	.	.	.	.	4g
.	.	.	2f	.	1cc
.	1G	1d	[1g	2r	.
.	.	.	.	2d	2b
=19	=19	=19	=19	=19	=19
1C	1G	1c	1g]	2e-	1cc
.	.	.	.	2e-	.
[1BB-	[1B-	2.f	1r	2d	2.dd
.	.	.	.	2B-	.
.	.	4e	.	.	4ee
=20	=20	=20	=20	=20	=20
1BB-]	1B-]	1d	1.b-	1.f	0ff
[1F	[1c	2.c	.	.	.
.	.	.	2a	2f	.
.	.	4B-	.	.	.
=21	=21	=21	=21	=21	=21
1F]	0c]	2A	2f	2.a	2r
.	.	2F	2a	.	1ff
.	.	.	.	4b-	.
[1C	.	1G	2.g	1cc	.
.	.	.	.	.	2ee
.	.	.	4f	.	.
=22	=22	=22	=22	=22	=22
1C]	0r	2r	4e	1g	2cc
.	.	.	4d	.	.
.	.	1c	2c	.	2ee
1G	.	.	1d	2r	2dd
.	.	2B-	.	[2g	4g
.	.	.	.	.	4a
=23	=23	=23	=23	=23	=23
0r	0r	2G	2r	2g]	4b-
.	.	.	.	.	4cc
.	.	1B-	4d	2f	1dd
.	.	.	4e	.	.
.	.	.	4f	2d	.
.	.	.	4g	.	.
.	.	2A	[2a	[2f	4cc
.	.	.	.	.	4b-
=24	=24	=24	=24	=24	=24
0r	0r	2F	2a]	4f]	4a
.	.	.	.	4e	4b-
.	.	2A	2e	2c	1cc
.	.	1G	2.g	2d	.
.	.	.	.	[2g	2b
.	.	.	4f	.	.
=25	=25	=25	=25	=25	=25
2r	0r	1A	2e	2g]	1cc
1c	.	.	2c	2f#	.
.	.	2G	2.d	1g	1r
2B-	.	[2g	.	.	.
.	.	.	8c	.	.
.	.	.	8d	.	.
=26	=26	=26	=26	=26	=26
2G	0r	2g]	2e-	1r	2r
1B-	.	2f	4d	.	1dd
.	.	.	4c	.	.
.	.	2d	2B-	2r	.
2A	.	[2f	2c	[2a	2cc
=27	=27	=27	=27	=27	=27
2F	0r	4f]	1c	2a]	2a
.	.	4e	.	.	.
2A	.	2c	.	2e	1cc
1G	.	2d	1r	2g	.
.	.	[2e-	.	[2g	2b-
=28	=28	=28	=28	=28	=28
0r	0r	4e-]	0r	4g]	2g
.	.	4d	.	4f	.
.	.	2B-	.	2d	2b-
.	.	2c	.	2e	2.a
.	.	2d	.	[2f	.
.	.	.	.	.	8g
.	.	.	.	.	8f
=29	=29	=29	=29	=29	=29
0r	0r	2B-	2r	2f]	1g
.	.	2c	1cc	2e	.
.	.	2A	.	2f	[1f
.	.	2B-	2b-	2d	.
=30	=30	=30	=30	=30	=30
2r	0r	2F	2a	2c	0f]
1B-	.	4B-	2b-	1d	.
.	.	4c	.	.	.
.	.	4d	2f	.	.
.	.	4e	.	.	.
2A	.	[2f	[2a	4c	.
.	.	.	.	4B-	.
=31	=31	=31	=31	=31	=31
2F	0r	4f]	4a]	1A	2r
.	.	4e	4g	.	.
2A	.	2c	4e	.	1cc
.	.	.	4f	.	.
1G	.	1d	2.g	2r	.
.	.	.	.	[2B-	2b-
.	.	.	4f	.	.
=32	=32	=32	=32	=32	=32
1G	1r	1B-	4e-	2B-]	2g
.	.	.	8d	.	.
.	.	.	8c	.	.
.	.	.	2.d	2G	2b-
2.F	[1f	1c	.	2A	2a
.	.	.	4c	.	.
.	.	.	[2c	[2a	2cc
4E	.	.	.	.	.
=33	=33	=33	=33	=33	=33
1D	1f]	1F	2c]	2a]	1dd
.	.	.	2B	2d	.
[1C	[1e	2r	1c	2g	4ee
.	.	.	.	.	4dd
.	.	2c	.	2g	4ee
.	.	.	.	.	4ff
=34	=34	=34	=34	=34	=34
1C]	1e_	2c	2r	1g	4gg
.	.	.	.	.	4ff
.	.	2c	2c	.	4ee
.	.	.	.	.	4dd
1r	1e_	2.A	2c	2r	[1cc
.	.	.	[2c	[2a	.
.	.	4B-	.	.	.
=35	=35	=35	=35	=35	=35
1.C	1e]	0c	4c]	2a]	1cc]
.	.	.	4d	.	.
.	.	.	4e	2g	.
.	.	.	4f	.	.
.	[1e	.	2g	2e	2r
2C	.	.	4c	[2g	2cc
.	.	.	4d	.	.
=36	=36	=36	=36	=36	=36
1C	1e]	1c	4e	4g]	2cc
.	.	.	4f	4f	.
.	.	.	2g	4e	2cc
.	.	.	.	4d	.
1F	1f	2r	2a	4c	2.a
.	.	.	.	4B-	.
.	.	[2c	2f	2A	.
.	.	.	.	.	4b-
=37	=37	=37	=37	=37	=37
2E	[0c	4c]	2g	2G	1cc
.	.	4B-	.	.	.
2F	.	2A	2.f	1c	.
1C	.	1G	.	.	1cc
.	.	.	8e	.	.
.	.	.	8d	.	.
.	.	.	2e	2G	.
=38	=38	=38	=38	=38	=38
1F	1c]	1F	2f	2A	2a
.	.	.	1a	2.c	2ff
1r	[1e	1c	.	.	2ee
.	.	.	.	4d	.
.	.	.	2g	4e	2cc
.	.	.	.	4f	.
=39	=39	=39	=39	=39	=39
2r	1e]	1c	2e	1g	2.ee
1c	.	.	1g	.	.
.	.	.	.	.	4ff
.	1d	1G	.	2r	2gg
2B-	.	.	2d	[2g	4g
.	.	.	.	.	4a
=40	=40	=40	=40	=40	=40
2G	1d	0r	2r	2g]	4b-
.	.	.	.	.	4cc
1B-	.	.	2d	2f	1dd
.	[1f	.	2B-	2d	.
2A	.	.	2c	[2f	4cc
.	.	.	.	.	4b-
=41	=41	=41	=41	=41	=41
2F	1f]	0r	1c	2f]	2a
2A	.	.	.	2c	1cc
1G	[1g	.	2r	2d	.
.	.	.	2d	2d	2b
=42	=42	=42	=42	=42	=42
1C	0g]	2r	2e-	1c	2cc
.	.	1c	2c	.	1ee-
2r	.	.	[1d	1G	.
[2G	.	2B-	.	.	2dd
=43	=43	=43	=43	=43	=43
2G]	[0g	2G	1d]	2r	2b-
2G	.	1B-	.	2.g	2dd
2E-	.	.	2G	.	2ee-
.	.	.	.	4g	.
[2C	.	2c	[2g	2e-	[2ee-
=44	=44	=44	=44	=44	=44
2C]	1g_	0G	4g]	1c	4ee-]
.	.	.	4f	.	4dd
2C	.	.	2e-	.	1cc
1G	1g_	.	[1d	2d	.
.	.	.	.	2G	4b
.	.	.	.	.	4a
=45	=45	=45	=45	=45	=45
1G	0g]	1G	1d]	1d	1b
1C	.	1G	1c	1e	1cc
*	*	*	*	*-	*-
!! Pleni
*Ibass	*Itenor	*Itenor	*Icalto
!Bassus	!Tenor 2	!Tenor 1	!Altus
*clefF4	*clefGv2	*clefGv2	*clefG2
*k[b-]	*k[b-]	*k[b-]	*k[b-]
*F:ion	*F:ion	*F:ion	*F:ion
*M4/2	*M4/2	*M4/2	*M4/2
=46	=46	=46	=46
0r	0r	0B-	0r
=47	=47	=47	=47
0r	0r	1A	0r
.	.	2B-	.
.	.	[2d	.
=48	=48	=48	=48
0r	0r	4d]	0f
.	.	4c	.
.	.	2.B-	.
.	.	4A	.
.	.	4A	.
.	.	8G	.
.	.	8F	.
=49	=49	=49	=49
0r	0r	1G	1e
.	.	2.F	2f
.	.	.	[2a
.	.	4G	.
=50	=50	=50	=50
1r	0r	2A	4a]
.	.	.	4g
.	.	4B-	2.f
.	.	4c	.
[1B-	.	4d	.
.	.	4e	4e
.	.	[2f	4d
.	.	.	4c
=51	=51	=51	=51
1B-]	0r	2f]	1d
.	.	4e	.
.	.	4d	.
1A	.	2e	2c
.	.	2f	[2cc
=52	=52	=52	=52
1B-	0r	2d	4cc]
.	.	.	4b-
.	.	2.g	2b-
1d	.	.	2a
.	.	4f	.
.	.	[2f	4g
.	.	.	4f
=53	=53	=53	=53
2.c	0r	2f]	1g
.	.	2e	.
4B-	.	.	.
4A	.	2c	1r
4G	.	.	.
[2F	.	[2d	.
=54	=54	=54	=54
4F]	0r	4d]	0f
4E	.	4c	.
4D	.	1c	.
4C	.	.	.
1D	.	.	.
.	.	2B	.
=55	=55	=55	=55
1C	0r	2.c	1e
.	.	4B-	.
1D	.	2A	2f
.	.	4F	[2a
.	.	4G	.
=56	=56	=56	=56
1F	1r	4A	4a]
.	.	4B-	4g
.	.	4c	2.f
.	.	4A	.
[1BB-	[1B-	2.d	.
.	.	.	4e
.	.	.	4d
.	.	4e	4c
=57	=57	=57	=57
1BB-]	1B-]	1f	1d
2.F	[1A	1f	1c
4E	.	.	.
=58	=58	=58	=58
4D	1A_	1r	2.f
4C	.	.	.
1D	.	.	.
.	.	.	4e
.	1A_	1f	4d
.	.	.	4c
2D	.	.	[2d
=59	=59	=59	=59
1AA	1A]	1e	2d]
.	.	.	2c#
[1D	[1A	2f	2d
.	.	[2a	[2f
=60	=60	=60	=60
1D]	1A]	4a]	4f]
.	.	4g	4e
.	.	2.f	2.d
[1BB-	1B-	.	.
.	.	4e	4c
.	.	4d	4B-
.	.	4c	4A
=61	=61	=61	=61
1BB-]	[0F	1d	2B-
.	.	.	1b-
2r	.	1c	.
[2F	.	.	2a
=62	=62	=62	=62
4F]	1F]	2r	1a
4E	.	.	.
1D	.	1f	.
.	[1A	.	2r
4C	.	4e	[2a
4BB-	.	4d	.
=63	=63	=63	=63
2.AA	1A]	[0c	2a]
.	.	.	4g
4BB-	.	.	4f
[1C	1G	.	2e
.	.	.	[2f
=64	=64	=64	=64
1C]	1G	1c]	2f]
.	.	.	2e
[1BB-	[1B-	[1d	2f
.	.	.	4B-
.	.	.	4c
=65	=65	=65	=65
1BB-]	1B-]	2d]	4d
.	.	.	4e
.	.	4c	4f
.	.	4B-	4g
1F	[1c	4A	1a
.	.	4F	.
.	.	[2f	.
=66	=66	=66	=66
1r	0c]	2f]	1g
.	.	2e	.
[1F	.	1f	[1a
=67	=67	=67	=67
2F]	0r	2r	1a]
2D	.	1f	.
1D	.	.	2r
.	.	2d	[2f
=68	=68	=68	=68
2.BB-	0r	2d	2f]
.	.	2.f	2d
4C	.	.	.
2D	.	.	2d
.	.	4e	.
2BB-	.	[2d	[2f
=69	=69	=69	=69
1F	0r	2d]	4f]
.	.	.	4g
.	.	4c	1a
.	.	4B-	.
1r	.	4A	.
.	.	4B-	.
.	.	4c	4g
.	.	4d	4f
=70	=70	=70	=70
1r	0r	4e	2g
.	.	4c	.
.	.	1f	2a
2r	.	.	1g
[2c	.	4e	.
.	.	4d	.
=71	=71	=71	=71
2c]	0r	2e	2r
2A	.	2f	2.cc
2A	.	1e	.
.	.	.	4b-
[2c	.	.	2a
=72	=72	=72	=72
4c]	0r	0r	2g
4B-	.	.	.
1A	.	.	2f
.	.	.	2e
4G	.	.	[2f
4F	.	.	.
=73	=73	=73	=73
1G	0r	1r	2f]
.	.	.	2e
[1F	.	2r	1f
.	.	[2c	.
=74	=74	=74	=74
1F_	0r	2c]	2r
.	.	2A	1cc
1F_	.	2A	.
.	.	[2c	2a
=75	=75	=75	=75
1F]	0r	4c]	2a
.	.	4B-	.
.	.	4A	2.cc
.	.	4G	.
1r	.	2F	.
.	.	.	4b-
.	.	[2f	[2a
=76	=76	=76	=76
1.c	0r	2f]	2a]
.	.	4e	4g
.	.	4d	4f
.	.	2e	2g
2A	.	2f	[2a
=77	=77	=77	=77
2A	1r	2e	2a]
1B-	.	1d	2f
.	[1f	.	1b-
4A	.	4c	.
4G	.	4B-	.
=78	=78	=78	=78
1F	1f]	1c	1.a
1C	[1e	2r	.
.	.	[2c	4g
.	.	.	4f
=79	=79	=79	=79
2r	1e_	2c]	2g
1c	.	2A	2a
.	1e_	2A	1a
2A	.	[2c	.
=80	=80	=80	=80
2.A	1e]	4c]	0r
.	.	4B-	.
.	.	1A	.
4B-	.	.	.
1c	[1e	.	.
.	.	4G	.
.	.	4F	.
=81	=81	=81	=81
1C	1e]	1G	2r
.	.	.	1cc
2.F	1f	2F	.
.	.	[2f	2a
4G	.	.	.
=82	=82	=82	=82
1A	[0c	2f]	2a
.	.	2e	2.cc
1F	.	2f	.
.	.	.	4b-
.	.	4F	[2a
.	.	4G	.
=83	=83	=83	=83
1F	1c]	4A	2a]
.	.	4B-	.
.	.	2.c	4g
.	.	.	4f
2C	[1e	.	2g
.	.	4d	.
[2C	.	4e	4c
.	.	4f	4d
=84	=84	=84	=84
4C]	1e]	2g	4e
4D	.	.	4f
4E	.	2.G	4g
4F	.	.	4a
2.G	1d	.	[1b-
.	.	4A	.
.	.	4B-	.
4A	.	4c	.
=85	=85	=85	=85
4B-	1d	4d	2b-]
4c	.	4e	.
2d	.	2.f	4a
.	.	.	4g
2.D	[1f	.	2.a
.	.	4e	.
.	.	[2d	.
4E	.	.	4g
=86	=86	=86	=86
4F	1f]	2d]	4f
4G	.	.	4e
2A	.	1c	4d
.	.	.	4c
[1G	[1g	.	[1d
.	.	4B	.
.	.	4A	.
=87	=87	=87	=87
1G]	0g]	1B	1d]
1C	.	1c	1e
*-	*-	*-	*-
!! Hosanna
**kern	**kern	**kern	**kern	**kern	**kern
*Ibass	*Itenor	*Itenor	*Icalto	*Icalto	*Icant
!Bassus	!Tenor 2	!Tenor 1	!Altus 2	!Altus 1	!Cantus
*clefF4	*clefGv2	*clefGv2	*clefG2	*clefG2	*clefG2
*k[b-]	*k[b-]	*k[b-]	*k[b-]	*k[b-]	*k[b-]
*F:ion	*F:ion	*F:ion	*F:ion	*F:ion	*F:ion
*M3/2	*M3/2	*M3/2	*M3/2	*M3/2	*M3/2
=88	=88	=88	=88	=88	=88
1r	1r	1B-	1r	1b-	1dd
2r	2r	2B-	2r	2b-	2dd
=89	=89	=89	=89	=89	=89
1r	1r	1f	1r	1a	1cc
2r	2r	2f	2r	2a	2cc
=90	=90	=90	=90	=90	=90
1r	1r	2.B-	1f	2.b-	2.dd
.	.	4c	.	4a	4cc
2r	2r	2d	2f	2f	2a
=91	=91	=91	=91	=91	=91
1r	1r	1c	1e	2g	2.cc
.	.	.	.	2g	.
.	.	.	.	.	4b-
2r	2r	2c	2e	[2cc	2g
=92	=92	=92	=92	=92	=92
1r	1r	2.F	2.f	4cc]	2.a
.	.	.	.	4b-	.
.	.	.	.	2.a	.
.	.	4G	4e	.	4b-
2r	2r	2A	2c	.	2cc
.	.	.	.	4g	.
=93	=93	=93	=93	=93	=93
1r	1r	2B-	2d	1f	1b-
.	.	1F	1c	.	.
2r	2r	.	.	2f	2a
=94	=94	=94	=94	=94	=94
1B-	1r	2.f	2B-	2.d	1.b-
.	.	.	2.d	.	.
.	.	4e	.	4e	.
2B-	2r	2d	.	4f	.
.	.	.	4e	4g	.
=95	=95	=95	=95	=95	=95
1A	1r	2.c	2f	2.a	1r
.	.	.	2e	.	.
.	.	4d	.	4b-	.
2A	2r	4e	2c	2cc	2r
.	.	4f	.	.	.
=96	=96	=96	=96	=96	=96
2.B-	1r	2g	2.d	1b-	1r
.	.	2.f	.	.	.
4A	.	.	4e	.	.
2F	2r	.	2f	2a	2r
.	.	4e	.	.	.
=97	=97	=97	=97	=97	=97
2A	1r	2c	2r	2.f	1r
1G	.	2d	2b-	.	.
.	.	.	.	8e	.
.	.	.	.	8d	.
.	2r	2B-	2b-	2e	2r
=98	=98	=98	=98	=98	=98
2.F	1r	1c	1a	2f	1ff
.	.	.	.	2r	.
4E	.	.	.	.	.
2D	2r	2d	2b-	2f	2ff
=99	=99	=99	=99	=99	=99
1.C	1r	1.G	2.cc	2g	1ee
.	.	.	.	2c	.
.	.	.	4b-	.	.
.	2r	.	2g	2e	2ee
=100	=100	=100	=100	=100	=100
1r	1r	1r	2.a	2.d	2.ff
.	.	.	4g	4e	4ee
2r	2r	2r	2a	2f	2cc
=101	=101	=101	=101	=101	=101
1r	1r	2r	2.b-	2B-	2dd
.	.	2F	.	1f	1cc
.	.	.	8a	.	.
.	.	.	8g	.	.
2r	2r	2F	2a	.	.
=102	=102	=102	=102	=102	=102
1BB-	1r	1B-	2b-	1d	1dd
.	.	.	2f	.	.
2BB-	2r	2B-	2g	2r	2dd
=103	=103	=103	=103	=103	=103
1F	1r	1A	1a	1f	1cc
2BB-	2r	2F	2b-	2f	2dd
=104	=104	=104	=104	=104	=104
1C	1r	1c	2g	1e	2.ee
.	.	.	2.cc	.	.
.	.	.	.	.	4ff
2C	2r	2c	.	2e	2gg
.	.	.	4b-	.	.
=105	=105	=105	=105	=105	=105
2.D	1r	2.F	4a	2.f	2ff
.	.	.	4g	.	.
.	.	.	2.a	.	1f
4E	.	4G	.	4e	.
2F	2r	2A	.	2c	.
.	.	.	4g	.	.
=106	=106	=106	=106	=106	=106
2BB-	1r	2B-	2.f	2d	2f
1C	.	1G	.	1c	1cc
.	.	.	8e	.	.
.	.	.	8d	.	.
.	2r	.	2e	.	.
=107	=107	=107	=107	=107	=107
2F	1r	2F	[1.f	2c	2a
2.BB-	.	2.f	.	4B-	2.dd
.	.	.	.	4c	.
.	2r	.	.	4d	.
4C	.	4e	.	4e	4cc
=108	=108	=108	=108	=108	=108
4D	1r	2d	1.f]	2.f	1b-
4E	.	.	.	.	.
1F	.	1c	.	.	.
.	.	.	.	4e	.
.	2r	.	.	2c	2a
=109	=109	=109	=109	=109	=109
2BB-	[1.B-	2B-	2r	2.d	[1.b-
2BB-	.	2d	2f	.	.
.	.	.	.	4c	.
2BB-	.	2d	2f	4B-	.
.	.	.	.	4A	.
=110	=110	=110	=110	=110	=110
2.E-	1.B-]	2.e-	2.g	2G	1.b-]
.	.	.	.	2g	.
4F	.	4d	4f	.	.
2G	.	2B-	2d	2g	.
=111	=111	=111	=111	=111	=111
1F	[1.A	1c	2.f	2.a	1r
.	.	.	4e-	4b-	.
2F	.	[2f	2c	2cc	2r
=112	=112	=112	=112	=112	=112
2.D	1.A]	4f]	4d	1.f	1ff
.	.	4e	4e	.	.
.	.	1d	4f	.	.
4E	.	.	4g	.	.
4F	.	.	2a	.	2ff
4G	.	.	.	.	.
=113	=113	=113	=113	=113	=113
2A	[1.A	2c	2a	2r	1ee
1AA	.	2c	1a	2e	.
.	.	2c	.	[2a	2ee
=114	=114	=114	=114	=114	=114
4D	1.A]	2d	2f	4a]	2.ff
4E	.	.	.	4g	.
4F	.	2.a	2r	2f	.
4G	.	.	.	.	4ee
2A	.	.	2r	2e	2cc
.	.	4g	.	.	.
=115	=115	=115	=115	=115	=115
2D	[1.A	2f	2.a	2d	2.dd
1AA	.	1e	.	2e	.
.	.	.	4g	.	8cc#
.	.	.	.	.	8b
.	.	.	2e	[2a	2cc#
=116	=116	=116	=116	=116	=116
2.D	1.A]	2d	2.f	2a]	1dd
.	.	2.a	.	2f	.
4E	.	.	4e	.	.
2F	.	.	2c	2r	2r
.	.	4g	.	.	.
=117	=117	=117	=117	=117	=117
1.BB-	1.B-	4f	2d	1b-	1dd
.	.	4e	.	.	.
.	.	4d	4B-	.	.
.	.	4c	4c	.	.
.	.	2B-	4d	2b-	2dd
.	.	.	4e	.	.
=118	=118	=118	=118	=118	=118
1r	[1.F	2c	1f	2.a	1cc
.	.	2A	.	.	.
.	.	.	.	4b-	.
2r	.	2A	2f	2cc	2a
=119	=119	=119	=119	=119	=119
2BB-	1.F]	2d	1.f	1b-	2b-
1F	.	1c	.	.	1cc
.	.	.	.	2a	.
=120	=120	=120	=120	=120	=120
2.BB-	1.F	2B-	2d	2b-	1dd
.	.	2d	2b-	1f	.
4C	.	.	.	.	.
4D	.	2d	2b-	.	2ff
4E	.	.	.	.	.
=121	=121	=121	=121	=121	=121
2.F	[1.A	1c	2.a	2f	1ff
.	.	.	.	1a	.
4G	.	.	4b-	.	.
2A	.	2c	2cc	.	2ee
=122	=122	=122	=122	=122	=122
2.D	1.A]	2.d	1.f	1a	1dd
4E	.	4c	.	.	.
2F	.	2A	.	2f	2cc
=123	=123	=123	=123	=123	=123
2.C	1.G	2.c	2r	2g	2.ee-
.	.	.	2r	2.g	.
4D	.	4B-	.	.	4dd
2E-	.	4G	2g	.	2b-
.	.	4A	.	4f	.
=124	=124	=124	=124	=124	=124
2BB-	1.G	2B-	2g	2d	2dd
1C	.	2G	2g	1e-	1cc
.	.	2g	2cc	.	.
=125	=125	=125	=125	=125	=125
2.G	[1.B-	2.g	2.b-	2B-	1dd
.	.	.	.	2G	.
4A	.	4f	4a	.	.
2B-	.	2d	2f	2b-	2r
=126	=126	=126	=126	=126	=126
2.E-	1.B-]	1e-	1g	1b-	2gg
.	.	.	.	.	2gg
4F	.	.	.	.	.
2G	.	2d	2g	2b-	[2gg
=127	=127	=127	=127	=127	=127
2.C	[1.c	2.c	2.e-	1.g	4gg]
.	.	.	.	.	4ff
.	.	.	.	.	4ee-
4D	.	4B-	4f	.	4dd
2E	.	2G	2g	.	4cc
.	.	.	.	.	4b-
=128	=128	=128	=128	=128	=128
2F	1.c]	2A	1f	2c	4a
.	.	.	.	.	4b
1C	.	1G	.	1g	1cc
.	.	.	2e	.	.
=129	=129	=129	=129	=129	=129
1.F	1.c	1.F	1.f	1.a	1.cc
==	==	==	==	==	==
*-	*-	*-	*-	*-	*-
!!!CDT: 1525/^1526/-1594/2/2
!!!OCY: Italia
!!!AGN: Mass (Tenor)
!!!AST: renaissance, vocal
!!!ASW: Motet 1563 (Palestrina)
!!!PWK: Masses, Book 6
!!!RNB: Cadence finals: C
!!!YOR: Le Opere Complete, v. 21, p. 142
!!!YOO: Rome, Italy: Fratelli Scalera
!!!END: 1992//
!!!EED: John Miller
!!!YEC: Copyright 2000, John Miller
!!!YEN: United States of America
!!!YEM: Rights to all derivative electronic formats reserved.
!!!YEM: Refer to licensing agreement for further details.
!!!YEM: This file must be accompanied by the licensing agreement.
!!!YEM: A copy of the licensing agreement may be found at http://www.music-cog.ohio-state.edu/HumdrumDatabases/Palestrina/license.txt
!!!EMD: converted to Humdrum by Bret Aarden
